X:1
T:Waltz No. 15
T:Waltz No. 15
T:Johannes Brahms, Op 39, No.15
T:by Mutopia-2006/07/30-794
T:by Mutopia-2006/07/30-794
C:Johannes Brahms, Op 39, No.15
Z:by Mutopia-2006/07/30-794
%%score { ( 1 3 ) | 2 }
L:1/8
Q:1/4=116
M:3/4
K:Ab
V:1 treble nm="Piano" snm="Pno."
V:3 treble 
V:2 bass 
V:1
 [Ec]3 [CA][CA][Ec] | [Ec]3 [CA][CA][Ec] | de/d/ c2 B2 | [EAc]3 AA[ce] | [Acf]3 [Ac][Ac]e | %5
 [Acf]3 [Ac][Ac]e | gf e2 =d2 | [Gce]3 [EG][EG]c | [Ec]3 [CA][CA][Ec] | [Ec]3 [CA][CA][Ec] | %10
 de/d/ c2 B2 | [EAc]3 AA[ce] | [Acf]3 [Ac][Ac]e | [Acf]3 [Ac][Ac]e | gf e2 =d2 | %15
 [Gce]3 [EGc][EGc]e | [EGBde]3 [EGB][EGB][de] | [EAce]3 [Ac][Ac]e | [Ace_ga]3 [Ace][Ace][ga] | %19
 [Adfa]3 [Adf][Adf]a | [AB=dfb]3 [Bdf][Bdf]a | ag f2 e2 | [Ec]3 [CA][CA][Ec] | %23
 [Ec]3 [CA] [CA][Ec] | de/d/ c2 B2 | [EAc]3 AA[ce] | [Acf]3 [Ac][Ac]e | [Acf]3 [Ac][Ac]e | %28
 ae d2 B2 | [CEA]2 z [EAc][EAc]e | [EGBde]3 [EGB][EGB][de] | [EAce]3 [Ac][Ac]e | %32
 [Ace_ga]3 [Ace][Ace][ga] | [Adfa]3 [Adf][Adf]a | [AB=dfb]3 [Bdf][Bdf]a | ag f2 e2 | %36
 [ec']2 (3z [CA][Ec] (3[ca][ec'][ca] | [ec']2 (3z [CA][Ec] (3[ca][ec'][ca] | d'e'/d'/ c'2 b2 | %39
 [eac']2 (3z [CA][Ec] (3[ca][ec'][fc']- | [af']2 (3z [CA][Ec] (3[ca][ec'][fc']- | %41
 [af']2 (3z [CA][Ec] (3[ca][ec'][ac']- | a'e' d'2 b2 | a2 z2 z2 |] %44
V:2
 A,,2 [E,A,C]2 [C,E,A,]2 | A,,,2 [E,A,C]2 [C,E,A,]2 | A,,2 [D,F,D]2 [F,A,]2 | %3
 A,,,2 [E,A,C]2 [C,E,A,]2 | F,,2 [F,A,CF]2 [A,,E,C]2 | F,,2 [F,A,CF]2 [A,,E,C]2 | %6
 E,,2 [E,G,C]2 [G,,F,=B,]2 | C,,2 [E,G,C]2 [C,E,]2 | A,,2 [E,A,C]2 [C,E,A,]2 | %9
 A,,,2 [E,A,C]2 [C,E,A,]2 | A,,2 [D,F,D]2 [F,A,]2 | A,,,2 [E,A,C]2 [C,E,A,]2 | %12
 F,,2 [F,A,CF]2 [A,,E,C]2 | F,,2 [F,A,CF]2 [A,,E,C]2 | E,,2 [E,G,C]2 [G,,F,=B,]2 | %15
 C,,2 [E,G,C]2 [C,E,G,]2 | E,,2 [E,G,D]2 [E,G,]2 | A,,2 [E,A,C]2 [E,A,]2 | A,,,2 [A,C_G]2 [A,C]2 | %19
 D,,2 [A,DF]2 [A,D]2 | [B,,,B,,]2 [A,B,=DF]2 [F,B,D]2 | E,,2 [E,B,D]2 [E,B,E]2 | %22
 A,,2 [E,A,C]2 [C,E,A,]2 | A,,,2 [E,A,C]2 [C,E,A,]2 | A,,2 [D,F,D]2 [F,A,]2 | %25
 A,,,2 [E,A,C]2 [C,E,A,]2 | F,,2 [F,A,CF]2 [A,,E,C]2 | F,,2 [F,A,CF]2 [A,,E,C]2 | %28
 C,,2 E,,2 [E,G,]2 | A,,2 [E,A,]2 [E,A,C]2 | E,,2 [E,G,D]2 [E,G,]2 | A,,2 [E,A,C]2 [E,A,]2 | %32
 A,,,2 [A,C_G]2 [A,C]2 | D,,2 [A,DF]2 [A,D]2 | [B,,,B,,]2 [A,B,=DF]2 [F,B,D]2 | %35
 E,,2 [E,B,D]2 [E,B,E]2 | A,,,2 [E,A,C]2 [C,E,A,]2 | A,,,2 [E,A,C]2 [C,E,A,]2 | %38
 D,,2 [D,A,]2 [F,A,]2 | A,,,2 [E,A,C]2 [C,E,A,]2 | F,,2 [F,A,C]2 [A,,E,A,]2 | %41
 F,,2 [F,A,C]2 [A,,E,A,]2 | C,,2 E,,2 [E,G,D]2 | A,,,2 [E,A,C]2 z2 |] %44
V:3
 x6 | x6 | [FA]2 [EA]2 [DA]2 | x6 | x6 | x6 | [Gc]2 [Gc]2 [F=B]2 | x6 | x6 | x6 | %10
 [FA]2 [EA]2 [DA]2 | x6 | x6 | x6 | [Gc]2 [Gc]2 [F=B]2 | x6 | x6 | x6 | x6 | x6 | x6 | %21
 [Bd]2 [Ad]2 [Gd]2 | x6 | x6 | [FA]2 [EA]2 [DA]2 | x6 | x6 | x6 | A2 G2 [DE]2 | x6 | x6 | x6 | x6 | %33
 x6 | x6 | [Bd]2 [Ad]2 [Gd]2 | x6 | x6 | [fa]2 [ea]2 [da]2 | z6 | [fc']2 x4 | [fc']2 x4 | %42
 [ac']2 [dg]2 [Bd]2 | [Ac]2 x4 |] %44

